X: 27676
T: Morfa Rhuddlan
R: waltz
M: 3/4
K: Fmajor
A2|d2 de fa|g2 ga f2|e2 ef ed|^c2 c2 c2|
d2 de fa|ga ba gf|e2 ~^c3 d|d2 d2:|
|:f2|a2 ab c'a|g2 ga bg|f2 fg ag|f2 f2 f2|
a2 ab c'a|g2 ga bg|f2 fg ag|f2 f2 f2|
ag fg af|gf ef ge|fe de fg|a2 A2 ^c2|
d2 de fa|ga ba gf|e2 ^c3 d|d2 d2:|

